X: 38364
T: Stanchen
R: barndance
M: 4/4
K: Dmajor
|:fA f2 gf e2|d>efd A4|ga g2 fa f2|e>fed ce a2|
fA f2 gf e2|d>efd A4|Bdgb afde|fAeA d4:|
K:G
|:G2 B2 dc A2|GBge d4|cedc Bd g2|fead d4|
G2 B2 dc A2|GBge d4|cedc Bd g2|AcBA AG G2:|

